!!!!SEGMENT: pl-wnifc--6670-n--001-024_gall-jan-karol--piesni-polskie-na-chor-meski-z-i-12-anielski-chor-pasterzom-oglasza-zbawienie.krn
!!!cenid: 19xx:192
!!!COM: Gall, Jan Karol
!!!COM-rismID: pe50042628
!!!CDT: 1856-1912
!!!CNT: Polish
!!!GTL: Pieśni polskie na chór męski (z. I)
!!!OTL: 12. Anielski chor pasterzom ogłasza zbawienie
!!!OMV: 024
!!!PDT:
!!!AGN:
!!!YEC: Copyright 2022 Narodowy Instytut Fryderyka Chopina (https://polishscores.org)
!!!YEM: License CC-BY-4.0 (https://creativecommons.org/licenses/by/4.0)
!!!SMS-siglum: PL-Wnifc
!!!SMS-shelfmark: 6670/n
!!!SMS-variant:
!!!SMS-altvar:
!!!SMS-shelfwork: 001-024 G
!!!NIFC-rismSourceID: 1001152877
!!!NIFC-rismChildID: 1001152913
!!!NIFC-islandoraID: nifc:213182
!!!URL-pdf-islandora: https://repozytorium.nifc.pl/islandora/object/nifc:213182/datastream/PDF/view
!!!URL-scan: https://polish.musicsources.pl/pl/lokalizacje/galeria/druki-muzyczne/16895/11 @EN{Scan on Polish Music Sources Website} @PL{Skany w portalu Dziedzictwo Muzyki Polskiej w otwartym dostępie}
!!!IIIF:
!!!ONB-nifc:
!!!OMD: Grazioso.
!!!AIN: 1 bass 1 tenor
!!!key: B-
**kern	**dynam	**kern	**text	**text	**dynam
*part2	*part2	*part1	*part1	*part1	*part1
*staff2	*	*staff1	*staff1	*staff1	*
*>[A,B,B1,B,B2]	*	*>[A,B,B1,B,B2]	*	*	*
*>A	*	*>A	*	*	*
*IGcoro	*	*IGcoro	*	*	*
*ICvox	*	*ICvox	*	*	*
*Ibass	*	*Itenor	*	*	*
*I"Basy.	*	*I"Tenory.	*	*	*
*I'B	*	*I'T	*	*	*
*clefF4	*	*clefGv2	*	*	*
*k[b-e-]	*	*k[b-e-]	*	*	*
*B-:	*	*B-:	*	*	*
*M6/8	*	*M6/8	*	*	*
*^	*	*^	*	*	*
!	!	!	!LO:TX:t=P:problem=brak przenośnika oktawowego przy kluczu	!	!	!	!
8F/	8F\	p	8F/	8F\	A-	Wnie-	p
=1	=1	=1	=1	=1	=1	=1	=1
4D/	4BB-\	.	8B-/L	4F\	-niel-	-do-	.
.	.	.	8d/J	.	.	.	.
8E-/	8BB-\	.	8F/	8F\	-ski	-li	.
4D/	4BB-\	.	8B-/L	4F\	chór	i	.
.	.	.	8d/J	.	.	.	.
8E-/	8BB-\	.	8F/	8F\	pa-	u-	.
=2	=2	=2	=2	=2	=2	=2	=2
8D/L	4.BB-\	<	8B-/L	8F\L	-ste-	-bó-	<
8F/	.	.	8d/	8B-\	.	.	.
8B-/J	.	[	8g/J	8d\J	.	.	[
4B-/	4BB-\	.	4f/	4d\	-rzom	-stwie	.
8F/	8BB-\	>]	8d/	8B-\	o-	Pan	>]
=3	=3	=3	=3	=3	=3	=3	=3
4F/	4F\	.	4c/	4A\	-gła-	nie-	.
8F/	8F\	.	8c/	8A\	-sza	-ba	.
!LO:N:vis=8.	!	!	!LO:N:vis=8.	!	!	!	!
8F/L	4.F\	.	8F/L	4.F\	zba-	przy-	.
8En/	.	.	8G/	.	.	.	.
8E-X/J	.	.	8An/J	.	.	.	.
=4	=4	=4	=4	=4	=4	=4	=4
4.D/	4.BB-\	.	4.B-/	4.F\	-wie-	-cho-	.
8D/	8BB-\	.	8B-/	8F\	-nie	-dzi	.
8r	8ryy	.	8r	8ryy	.	.	.
8F/	8F\	.	8F/	8F\	Zwias-	on	.
!!LO:LB:g=original
=5	=5	=5	=5	=5	=5	=5	=5
4D/	4BB-\	p	8B-/L	4F\	-tu-	tem	p
.	.	.	8d/J	.	.	.	.
8E-/	8BB-\	.	8F/	8F\	-jąc	cier-	.
4D/	4BB-\	.	8B-/L	4F\	im	-pie-	.
.	.	.	8d/J	.	.	.	.
8E-/	8BB-\	.	8F/	8F\	Bos-	-niem	.
=6	=6	=6	=6	=6	=6	=6	=6
8D/L	4BB-\	<	8B-/L	8F\L	-kie-	nę-	<
8F/J	.	[	8d/J	8B-\J	.	.	[
8B-/	8BB-\	.	8g/	8d\	-go	-dzy	.
4B-/	4BB-\	.	4f/	4d\	sło-	wszyst-	.
8F/	8BB-\	>]	8d/	8B-\	-wa,	-ko	>]
=7	=7	=7	=7	=7	=7	=7	=7
4F/	4F\	.	4c/	4A\	sło-	wszyst-	.
8F/	8F\	.	8c/	8A\	-wa	-ko	.
8F/L	4F\	.	8F/L	4F\	wy-	nam	.
8En/J	.	.	8G/J	.	.	.	.
8E-X/	8F\	.	8A/	8F\	-peł-	o-	.
=8	=8	=8	=8	=8	=8	=8	=8
4.D/	4.BB-\	.	4.B-/	4.F\	-nie-	-sło-	.
8D/	8BB-\	.	8B-/	8F\	-nie,	-dzi	.
8r	8ryy	.	8r	8ryy	.	.	.
8F/	8BB-\	.	8d/	8B-\	że	jak	.
!!LO:LB:g=original
=9	=9	=9	=9	=9	=9	=9	=9
4F/	4F\	.	4c/	4A\	wszo-	le-	.
8F/	8F\	.	8Bn/	8G#X\	-pie	-żąc	.
4E-/	4F\	.	4c/	4A\	zczy-	pła-	.
8F/	8F\	.	8d/	8A\	-stej	-cze	.
=10	=10	=10	=10	=10	=10	=10	=10
(4.D/	(4.BB-\	.	(4.B-/	(4.B-\	pan-	wżłób-	.
4F/)	4F\)	.	4F/)	4F\)	.	.	.
8F/	8BB-\	.	8d/	8B-\	-ny	-ku	.
=11	=11	=11	=11	=11	=11	=11	=11
4F/	4F\	.	4c/	4A\	zbaw-	tak	.
8F/	8F\	.	8Bn/	8G#X\	-ca	na	.
8F/L	4F\	.	8c/L	4A\	się	krzy-	.
8Gn/J	.	.	8e-/J	.	.	.	.
8F/	8F\	.	8d/	8A\	na-	-żu	.
=12	=12	=12	=12	=12	=12	=12	=12
4.D/	4.BB-\	.	4.B-/	4.B-\	-ro-	sko-	.
8D/	8BB-\	.	8B-/	8B-\	-dził	-na	.
8r	8ryy	.	8r	8ryy	.	.	.
8F/	8F\	.	8F/	8F\	by	Bo	.
=13!|:	=13!|:	=13!|:	=13!|:	=13!|:	=13!|:	=13!|:	=13!|:
*>B	*	*	*>B	*	*	*	*
4D/	4BB-\	.	8B-/L	4F\	was	wiel-	.
.	.	.	8d/J	.	.	.	.
8E-/	8BB-\	.	8F/	8F\	by	-kim	.
8D/	8BB-\	.	8B-/L	8F\	was	cu-	.
8D/	8BB-\	.	8d/J	8F\	.	-dem	.
8E-/	8BB-\	.	8F/	8F\	dzie-	mi-	.
!!LO:LB:g=original
=14	=14	=14	=14	=14	=14	=14	=14
8D/L	4BB-\	<	8B-/L	8F\L	-dzi-	-ło-	<
8F/J	.	.	8d/J	8B-\J	.	.	.
8B-/	8BB-\	[	8g/	8d\	-ców	.	[
4B-/	4BB-\	.	4f/	4d\	nie-	-ści	.
8F/	8BB-\	.	8d/	8B-\	-ba	od-	.
=15	=15	=15	=15	=15	=15	=15	=15
!LO:TX:t=1.	!	!	!	!	!	!	!
*>B1	*	*	*>B1	*	*	*	*
4G/	4E-\	.	4c/	4c\	zwię-	-[ku-	.
8G/	8D\	.	8d/	8Bn\	-zów	-pu	.
4G/	4C\	>	4e-/	4c\	o-	do-	>
8F/	8AA\	]	8f/	8c\	-swo-	.	]
=16	=16	=16	=16	=16	=16	=16	=16
4.F/	4.BB-\	.	4.d/	4.B-\	-bo-	-ko-	.
8F/	8BB-\	.	8d/	8B-\	-dził	-na]	.
8r	8ryy	.	8r	8ryy	.	.	.
8F/	8F\	.	8F/	8F\	By	.	.
=17:|!	=17:|!	=17:|!	=17:|!	=17:|!	=17:|!	=17:|!	=17:|!
!LO:TX:t=2.	!	!	!	!	!	!	!
*>B2	*	*	*>B2	*	*	*	*
4F/	4F\	.	4c/	4A\	zwię-	-ku-	.
8F/	8F\	.	8c/	8A\	-zów	-pu	.
8F/L	4F\	>	8F/L	4F\	o-	do-	>
8En/J	.	]	8G/J	.	.	.	]
8E-X/	8F\	/	8A/	8F\	-swo-	.	.
=18	=18	=18	=18	=18	=18	=18	=18
4.D/	4.BB-\	>	4.B-/	4.F\	-bo-	-ko-	>
8D/	8BB-\	]	8B-/	8F\	-dził.	-na.	]
8r	4ryy	.	8r	4ryy	.	.	.
8r	.	.	8r	.	.	.	.
*v	*v	*	*v	*v	*	*	*
==	==	==	==	==	==
*-	*-	*-	*-	*-	*-
!!!system-decoration: [(*)]
!!!ENC: Filip Voros
!!!END: 2024-05-04
!!!EED: Andrzej Kubiczek
!!!EEV: 2025-03-11
